public/logos/P6.svg

<?xml version="1.0" encoding="UTF-8"?>
<svg xmlns="http://www.w3.org/2000/svg" xmlns:xlink="http://www.w3.org/1999/xlink" width="149.68pt" height="59pt" viewBox="0 0 149.68 59" version="1.1">
<defs>
<clipPath id="clip1">
  <path d="M 126 16 L 149.679688 16 L 149.679688 43 L 126 43 Z M 126 16 "/>
</clipPath>
</defs>
<g id="surface1">
<path style=" stroke:none;fill-rule:nonzero;fill:rgb(11.976624%,12.165833%,12.712097%);fill-opacity:1;" d="M 10.070312 30.113281 C 13.59375 30.113281 15.789062 28.15625 15.789062 25.386719 L 15.789062 25.304688 C 15.789062 22.199219 13.554688 20.578125 10.070312 20.578125 L 4.648438 20.578125 L 4.648438 30.113281 Z M 0 16.34375 L 10.445312 16.34375 C 16.621094 16.34375 20.519531 19.863281 20.519531 25.207031 L 20.519531 25.285156 C 20.519531 31.222656 15.75 34.328125 9.914062 34.328125 L 4.648438 34.328125 L 4.648438 42.835938 L 0 42.835938 L 0 16.34375 "/>
<path style=" stroke:none;fill-rule:nonzero;fill:rgb(11.976624%,12.165833%,12.712097%);fill-opacity:1;" d="M 38.679688 32.308594 L 34.109375 21.703125 L 29.558594 32.308594 Z M 32.011719 16.144531 L 36.328125 16.144531 L 47.980469 42.816406 L 43.054688 42.816406 L 40.363281 36.425781 L 27.839844 36.425781 L 25.128906 42.835938 L 20.359375 42.835938 L 32.011719 16.144531 "/>
<path style=" stroke:none;fill-rule:nonzero;fill:rgb(11.976624%,12.165833%,12.712097%);fill-opacity:1;" d="M 50.335938 38.976562 L 53.144531 35.652344 C 55.675781 37.847656 58.207031 39.09375 61.511719 39.09375 C 64.382812 39.09375 66.203125 37.769531 66.203125 35.773438 L 66.203125 35.691406 C 66.203125 33.792969 65.132812 32.785156 60.226562 31.636719 C 54.589844 30.273438 51.402344 28.609375 51.402344 23.722656 L 51.402344 23.644531 C 51.402344 19.09375 55.179688 15.96875 60.445312 15.96875 C 64.300781 15.96875 67.367188 17.132812 70.058594 19.289062 L 67.566406 22.8125 C 65.191406 21.03125 62.796875 20.082031 60.386719 20.082031 C 57.65625 20.082031 56.070312 21.488281 56.070312 23.226562 L 56.070312 23.308594 C 56.070312 25.34375 57.277344 26.253906 62.363281 27.460938 C 67.964844 28.828125 70.871094 30.824219 70.871094 35.21875 L 70.871094 35.296875 C 70.871094 40.265625 66.972656 43.210938 61.414062 43.210938 C 57.339844 43.210938 53.519531 41.804688 50.335938 38.976562 "/>
<g clip-path="url(#clip1)" clip-rule="nonzero">
<path style=" stroke:none;fill-rule:nonzero;fill:rgb(11.976624%,12.165833%,12.712097%);fill-opacity:1;" d="M 126.605469 16.34375 L 130.921875 16.34375 L 145.105469 34.664062 L 145.105469 16.34375 L 149.675781 16.34375 L 149.675781 42.835938 L 145.777344 42.835938 L 131.175781 23.980469 L 131.175781 42.835938 L 126.605469 42.835938 L 126.605469 16.34375 "/>
</g>
<path style=" stroke:none;fill-rule:nonzero;fill:rgb(11.976624%,12.165833%,12.712097%);fill-opacity:1;" d="M 88.796875 38.996094 C 83.730469 38.996094 80.050781 34.761719 80.050781 29.578125 L 80.050781 29.5 C 80.050781 24.316406 83.730469 20.160156 88.796875 20.160156 C 91.824219 20.160156 94.097656 21.488281 96.214844 23.445312 L 96.257812 23.40625 L 98.15625 19.074219 C 95.839844 17.152344 93.070312 15.886719 88.835938 15.886719 C 80.824219 15.886719 75.164062 22.058594 75.164062 29.578125 L 75.164062 29.65625 C 75.164062 36.917969 80.40625 42.71875 87.589844 43.230469 L 89.449219 38.976562 C 89.230469 38.976562 89.015625 38.996094 88.796875 38.996094 "/>
<path style=" stroke:none;fill-rule:nonzero;fill:rgb(11.976624%,12.165833%,12.712097%);fill-opacity:1;" d="M 110.878906 17.253906 L 108.601562 22.695312 L 112.757812 32.308594 L 104.566406 32.308594 L 102.824219 36.425781 L 114.457031 36.425781 L 117.148438 42.835938 L 122.054688 42.835938 L 110.878906 17.253906 "/>
<path style=" stroke:none;fill-rule:nonzero;fill:rgb(31.008911%,69.244385%,83.216858%);fill-opacity:1;" d="M 115.210938 0 C 113.351562 0 111.847656 1.503906 111.847656 3.363281 C 111.847656 4.550781 112.480469 5.597656 113.410156 6.191406 L 109.214844 16.144531 L 106.070312 16.144531 L 90.378906 52.371094 C 90.121094 52.3125 89.863281 52.273438 89.609375 52.273438 C 87.746094 52.273438 86.246094 53.777344 86.246094 55.636719 C 86.246094 57.496094 87.746094 59 89.609375 59 C 91.46875 59 92.972656 57.496094 92.972656 55.636719 C 92.972656 54.449219 92.339844 53.398438 91.40625 52.808594 L 95.601562 42.835938 L 99.183594 42.835938 L 114.417969 6.628906 C 114.675781 6.6875 114.933594 6.726562 115.191406 6.726562 C 117.050781 6.726562 118.554688 5.222656 118.554688 3.363281 C 118.574219 1.503906 117.070312 0 115.210938 0 "/>
</g>
</svg>

<svg xmlns="http://www.w3.org/2000/svg" width="199.573" height="59pt" viewBox="0 0 149.68 59"><defs><clipPath id="a"><path d="M126 16h23.68v27H126Zm0 0"/></clipPath></defs><path d="M10.07 30.113c3.524 0 5.72-1.957 5.72-4.726v-.082c0-3.106-2.235-4.727-5.72-4.727H4.648v9.535ZM0 16.343h10.445c6.176 0 10.075 3.52 10.075 8.864v.078c0 5.938-4.77 9.043-10.606 9.043H4.648v8.508H0zM38.68 32.309l-4.57-10.606-4.551 10.606Zm-6.668-16.164h4.316L47.98 42.816h-4.925l-2.692-6.39H27.84l-2.711 6.41h-4.77zM50.336 38.977l2.809-3.325c2.53 2.196 5.062 3.442 8.367 3.442 2.87 0 4.691-1.324 4.691-3.32v-.083c0-1.898-1.07-2.906-5.976-4.054-5.637-1.364-8.825-3.028-8.825-7.914v-.078c0-4.551 3.778-7.676 9.043-7.676 3.856 0 6.922 1.164 9.614 3.32l-2.493 3.523c-2.375-1.78-4.77-2.73-7.18-2.73-2.73 0-4.316 1.406-4.316 3.145v.082c0 2.035 1.207 2.945 6.293 4.152 5.602 1.367 8.508 3.363 8.508 7.758v.078c0 4.969-3.898 7.914-9.457 7.914-4.074 0-7.894-1.406-11.078-4.234" style="stroke:none;fill-rule:nonzero;fill:#1f1f20;fill-opacity:1"/><g clip-path="url(#a)"><path d="M126.605 16.344h4.317l14.183 18.32v-18.32h4.57v26.492h-3.898L131.176 23.98v18.856h-4.57z" style="stroke:none;fill-rule:nonzero;fill:#1f1f20;fill-opacity:1"/></g><path d="M88.797 38.996c-5.067 0-8.746-4.234-8.746-9.418V29.5c0-5.184 3.68-9.34 8.746-9.34 3.027 0 5.3 1.328 7.418 3.285l.043-.039 1.898-4.332c-2.316-1.922-5.086-3.187-9.32-3.187-8.012 0-13.672 6.172-13.672 13.691v.078c0 7.262 5.242 13.063 12.426 13.574l1.86-4.253c-.22 0-.434.02-.653.02M110.879 17.254l-2.277 5.441 4.156 9.614h-8.192l-1.742 4.117h11.633l2.691 6.41h4.907z" style="stroke:none;fill-rule:nonzero;fill:#1f1f20;fill-opacity:1"/><path d="M115.21 0a3.36 3.36 0 0 0-3.362 3.363c0 1.188.632 2.235 1.562 2.828l-4.195 9.954h-3.145L90.38 52.37a3.5 3.5 0 0 0-.77-.098 3.36 3.36 0 0 0-3.363 3.364c0 1.86 1.5 3.363 3.363 3.363a3.36 3.36 0 0 0 3.364-3.363 3.36 3.36 0 0 0-1.567-2.828l4.196-9.973h3.582l15.234-36.207c.258.059.516.098.773.098a3.36 3.36 0 0 0 3.364-3.364A3.33 3.33 0 0 0 115.21 0" style="stroke:none;fill-rule:nonzero;fill:#4fb1d4;fill-opacity:1"/></svg>
